!!!OTL@@FUR: Tumbur&ugrave;s a schila...
!!!OTL@EN: Tumbur&ugrave;s catches shrimp
**kern
*clefG2
*k[f#]
*G:
*M3/4
*MM120
*>[A]
*>A
4d
=1
4.b
8a
8b
8a
=2
2g
8f#
8e
=3
2.d
=4
4dd
4dd
4ff#
=5
2ee
4dd
=6
4dd
8cc
8b
8cc
8dd
=7
2.cc
=8
4dd
4ff#
4ee
=9
4cc
4ee
4dd
=10
2b
4cc
=11
2.dd
=12
4ff#
4ee
4dd
=13
4cc
4ee
4dd
=14
[2.b
=15
2b]
4r
=16
4dd
4ff#
4ee
=17
4cc
4ee
4dd
=18
2b
4cc
=19
2.dd
=20
4ff#
4ee
4dd
=21
4cc
4ee
4dd
=22
[2.b
=23
4b]
4r
4r
==
*-
!!!ARE: Friuli
!!!ENC: Kelly Leistikow
!!!END: 2002/03/07
!!!ref: @{OTL@@FUR}/@{OTL@EN}
